static/img/kroki/27dd6b7783659c505af214f9aad89fb1.svg

<?xml version="1.0" encoding="us-ascii" standalone="no"?><svg xmlns="http://www.w3.org/2000/svg" xmlns:xlink="http://www.w3.org/1999/xlink" contentStyleType="text/css" height="374px" preserveAspectRatio="none" style="width:336px;height:374px;" version="1.1" viewBox="0 0 336 374" width="336px" zoomAndPan="magnify"><defs/><g><!--class kubernetes_replication_controller--><g id="elem_kubernetes_replication_controller"><rect codeLine="23" fill="#3D176E" height="39.7891" id="kubernetes_replication_controller" rx="2.5" ry="2.5" style="stroke:#000D19;stroke-width:0.5;" width="322" x="7" y="328.58"/><ellipse cx="22" cy="348.4745" fill="#ADD1B2" rx="11" ry="11" style="stroke:#181818;stroke-width:1.0;"/><path d="M24.9688,354.1152 Q24.3906,354.412 23.75,354.5527 Q23.1094,354.7089 22.4063,354.7089 Q19.9063,354.7089 18.5781,353.0683 Q17.2656,351.412 17.2656,348.287 Q17.2656,345.162 18.5781,343.5058 Q19.9063,341.8495 22.4063,341.8495 Q23.1094,341.8495 23.75,342.0058 Q24.4063,342.162 24.9688,342.4589 L24.9688,345.1777 Q24.3438,344.5995 23.75,344.3339 Q23.1563,344.0527 22.5313,344.0527 Q21.1875,344.0527 20.5,345.1308 Q19.8125,346.1933 19.8125,348.287 Q19.8125,350.3808 20.5,351.4589 Q21.1875,352.5214 22.5313,352.5214 Q23.1563,352.5214 23.75,352.2558 Q24.3438,351.9745 24.9688,351.3964 L24.9688,354.1152 Z " fill="#000000"/><text fill="#D9B8FF" font-family="Helvetica" font-size="17" lengthAdjust="spacing" textLength="280" x="41" y="354.3598">kubernetes_replication_controller</text></g><!--class kubernetes_resource--><g id="elem_kubernetes_resource"><rect codeLine="26" fill="#3D176E" height="39.7891" id="kubernetes_resource" rx="2.5" ry="2.5" style="stroke:#000D19;stroke-width:0.5;" width="216" x="60" y="167.79"/><ellipse cx="75" cy="187.6845" fill="#ADD1B2" rx="11" ry="11" style="stroke:#181818;stroke-width:1.0;"/><path d="M77.9688,193.3252 Q77.3906,193.622 76.75,193.7627 Q76.1094,193.9189 75.4063,193.9189 Q72.9063,193.9189 71.5781,192.2783 Q70.2656,190.622 70.2656,187.497 Q70.2656,184.372 71.5781,182.7158 Q72.9063,181.0595 75.4063,181.0595 Q76.1094,181.0595 76.75,181.2158 Q77.4063,181.372 77.9688,181.6689 L77.9688,184.3877 Q77.3438,183.8095 76.75,183.5439 Q76.1563,183.2627 75.5313,183.2627 Q74.1875,183.2627 73.5,184.3408 Q72.8125,185.4033 72.8125,187.497 Q72.8125,189.5908 73.5,190.6689 Q74.1875,191.7314 75.5313,191.7314 Q76.1563,191.7314 76.75,191.4658 Q77.3438,191.1845 77.9688,190.6064 L77.9688,193.3252 Z " fill="#000000"/><text fill="#D9B8FF" font-family="Helvetica" font-size="17" lengthAdjust="spacing" textLength="174" x="94" y="193.5698">kubernetes_resource</text></g><!--class resource--><g id="elem_resource"><rect codeLine="29" fill="#3D176E" height="39.7891" id="resource" rx="2.5" ry="2.5" style="stroke:#000D19;stroke-width:0.5;" width="113" x="111.5" y="7"/><ellipse cx="126.5" cy="26.8945" fill="#ADD1B2" rx="11" ry="11" style="stroke:#181818;stroke-width:1.0;"/><path d="M129.4688,32.5352 Q128.8906,32.832 128.25,32.9727 Q127.6094,33.1289 126.9063,33.1289 Q124.4063,33.1289 123.0781,31.4883 Q121.7656,29.832 121.7656,26.707 Q121.7656,23.582 123.0781,21.9258 Q124.4063,20.2695 126.9063,20.2695 Q127.6094,20.2695 128.25,20.4258 Q128.9063,20.582 129.4688,20.8789 L129.4688,23.5977 Q128.8438,23.0195 128.25,22.7539 Q127.6563,22.4727 127.0313,22.4727 Q125.6875,22.4727 125,23.5508 Q124.3125,24.6133 124.3125,26.707 Q124.3125,28.8008 125,29.8789 Q125.6875,30.9414 127.0313,30.9414 Q127.6563,30.9414 128.25,30.6758 Q128.8438,30.3945 129.4688,29.8164 L129.4688,32.5352 Z " fill="#000000"/><text fill="#D9B8FF" font-family="Helvetica" font-size="17" lengthAdjust="spacing" textLength="71" x="145.5" y="32.7798">resource</text></g><!--reverse link kubernetes_resource to kubernetes_replication_controller--><g id="link_kubernetes_resource_kubernetes_replication_controller"><path codeLine="32" d="M168,225.84 C168,256.36 168,297.69 168,328.25 " fill="none" id="kubernetes_resource-backto-kubernetes_replication_controller" style="stroke:#FFAF37;stroke-width:2.0;"/><polygon fill="none" points="168,207.84,162,225.84,174,225.84,168,207.84" style="stroke:#FFAF37;stroke-width:2.0;"/></g><!--reverse link resource to kubernetes_resource--><g id="link_resource_kubernetes_resource"><path codeLine="33" d="M168,65.05 C168,95.57 168,136.9 168,167.46 " fill="none" id="resource-backto-kubernetes_resource" style="stroke:#FFAF37;stroke-width:2.0;"/><polygon fill="none" points="168,47.05,162,65.05,174,65.05,168,47.05" style="stroke:#FFAF37;stroke-width:2.0;"/></g><!--SRC=[XPBDRi8m48JlUGfBd958KHkGUW6aghsWglIEZBqcLXnljDuKqPztRoXjPP80rvtFEpChvrQ3WBBYlIYXt02591JMLv9aAMP4k5kWGn83OwGPPstn0JrV1PQo1F48xWtOAjacNdEh2WyXY9j8cajLR0bhhu_hcQGFZGIU8shXP0WpPhARcY4AewURYJ5jihrqCDPfTWST34a3_IAZqKYdqpPorUfYxtzYPTz1fF7HbiZGYTcn-A4kfZmGKSXEqJ_zRCPdgRNrMt4RpLwEcSW3dSnNkTIuEz16kX3R10O2v7q5Yquhc4wqoNhXftDmeWwd4qNT_5GF365DKBacELlqQzKK8dIkYVUH95zzSC2Q5CJowQmFllyS3eVNFPDB3uvAyWq0]--></g></svg>

<svg xmlns="http://www.w3.org/2000/svg" width="336" height="374" viewBox="0 0 336 374"><rect width="322" height="39.789" x="7" y="328.58" fill="#3D176E" rx="2.5" ry="2.5" style="stroke:#000d19;stroke-width:.5"/><circle cx="22" cy="348.474" r="11" fill="#ADD1B2" style="stroke:#181818;stroke-width:1"/><path d="M24.969 354.115q-.578.297-1.219.438-.64.156-1.344.156-2.5 0-3.828-1.64-1.312-1.657-1.312-4.782t1.312-4.781q1.328-1.656 3.828-1.656.703 0 1.344.156.656.156 1.219.453v2.719q-.625-.579-1.219-.844-.594-.281-1.219-.281-1.343 0-2.031 1.078-.687 1.062-.687 3.156t.687 3.172q.688 1.062 2.031 1.062.625 0 1.219-.265.594-.281 1.219-.86z"/><text x="41" y="354.36" fill="#D9B8FF" font-family="Helvetica" font-size="17" textLength="280">kubernetes_replication_controller</text><rect width="216" height="39.789" x="60" y="167.79" fill="#3D176E" rx="2.5" ry="2.5" style="stroke:#000d19;stroke-width:.5"/><circle cx="75" cy="187.685" r="11" fill="#ADD1B2" style="stroke:#181818;stroke-width:1"/><path d="M77.969 193.325q-.578.297-1.219.438-.64.156-1.344.156-2.5 0-3.828-1.64-1.312-1.657-1.312-4.782t1.312-4.781q1.328-1.656 3.828-1.656.703 0 1.344.156.656.156 1.219.453v2.719q-.625-.578-1.219-.844-.594-.281-1.219-.281-1.344 0-2.031 1.078-.687 1.062-.687 3.156t.687 3.172q.688 1.062 2.031 1.062.625 0 1.219-.265.594-.281 1.219-.86z"/><text x="94" y="193.57" fill="#D9B8FF" font-family="Helvetica" font-size="17" textLength="174">kubernetes_resource</text><rect width="113" height="39.789" x="111.5" y="7" fill="#3D176E" rx="2.5" ry="2.5" style="stroke:#000d19;stroke-width:.5"/><circle cx="126.5" cy="26.895" r="11" fill="#ADD1B2" style="stroke:#181818;stroke-width:1"/><path d="M129.469 32.535q-.578.297-1.219.438-.64.156-1.344.156-2.5 0-3.828-1.64-1.312-1.657-1.312-4.782t1.312-4.781q1.328-1.656 3.828-1.656.703 0 1.344.156.656.156 1.219.453v2.719q-.625-.578-1.219-.844-.594-.281-1.219-.281-1.344 0-2.031 1.078-.687 1.062-.687 3.156t.687 3.172q.688 1.062 2.031 1.062.625 0 1.219-.265.594-.281 1.219-.86z"/><text x="145.5" y="32.78" fill="#D9B8FF" font-family="Helvetica" font-size="17" textLength="71">resource</text><path fill="none" d="M168 225.84v102.41m0-120.41-6 18h12zm0-142.79v102.41m0-120.41-6 18h12z" style="stroke:#ffaf37;stroke-width:2"/></svg>
